static/images/mobile/copyright/wikipedia-tagline-bjn.svg

<?xml version="1.0" encoding="UTF-8"?>
<svg width="82px" height="16px" viewBox="0 0 82 16" version="1.1" xmlns="http://www.w3.org/2000/svg" xmlns:xlink="http://www.w3.org/1999/xlink">
    <title>bjn-tagline</title>
    <g id="Page-1" stroke="none" stroke-width="1" fill="none" fill-rule="evenodd">
        <path d="M72.6666667,12.1111111 L73.8888889,12.7777778 L73.3333333,13.8888889 L72.1111111,13.2222222 L72.6666667,12.1111111 Z M74.4444444,11.3333333 L75.6666667,12 L75.1111111,13.1111111 L73.8888889,12.4444444 L74.4444444,11.3333333 Z M64.7777778,10.5555556 C64.4444444,10.5555556 64.2222222,10.4444444 64,10.3333333 C63.7777778,10.2222222 63.6666667,10 63.6666667,9.77777778 L63.6666667,9.22222222 C63.6666667,9.11111111 63.7777778,8.88888889 63.7777778,8.66666667 L64,8.66666667 C64,8.88888889 64.1111111,9 64.3333333,9.11111111 C64.4444444,9.22222222 64.6666667,9.22222222 64.7777778,9.22222222 L67.6666667,9.22222222 C67.6666667,8.33333333 67.5555556,7.55555556 67.3333333,7 C67,6.33333333 66.5555556,5.88888889 65.7777778,5.66666667 L65.8888889,4.22222222 C66.7777778,4.66666667 67.3333333,5.33333333 67.7777778,6.22222222 C68.1111111,7 68.2222222,8 68.2222222,9.22222222 L71.3333333,9.22222222 C71.3333333,8.66666667 71.2222222,8.22222222 71.1111111,7.88888889 C71,7.66666667 70.7777778,7.33333333 70.4444444,7 L71,5.77777778 C71.3333333,6.22222222 71.5555556,6.55555556 71.6666667,6.88888889 C71.7777778,7.22222222 71.8888889,7.88888889 71.8888889,8.77777778 L71.888,9.222 L75.1111111,9.22222222 C75.1111111,8.66666667 75,8.22222222 74.8888889,7.88888889 C74.7777778,7.66666667 74.5555556,7.33333333 74.2222222,7 L74.7777778,5.77777778 C75.1111111,6.22222222 75.3333333,6.55555556 75.4444444,6.88888889 C75.5555556,7.22222222 75.6666667,7.88888889 75.6666667,8.77777778 L75.666,9.222 L80.8888889,9.22222222 C80.5555556,8.66666667 80.1111111,8.22222222 79.6666667,7.77777778 C79.2222222,7.33333333 78.5555556,7 77.7777778,6.44444444 L77.5555556,6.66666667 L76.6666667,6 C76.3333333,5.77777778 76.2222222,5.55555556 76.2222222,5.33333333 C76.2222222,4.44444444 76.4444444,3.77777778 76.8888889,3.33333333 C77.3333333,2.88888889 78,2.44444444 78.8888889,2.11111111 L81,1.33333333 L81,2.66666667 L79.4444444,3.22222222 C78.7777778,3.44444444 78.3333333,3.66666667 77.8888889,3.77777778 C77.4444444,4 77.1111111,4.11111111 77.1111111,4.22222222 C77.1111111,4.33333333 77.2222222,4.55555556 77.5555556,4.77777778 C77.7777778,4.88888889 78,5.11111111 78.2222222,5.22222222 C79,5.77777778 79.6666667,6.44444444 80.2222222,7 C80.8888889,7.66666667 81.3333333,8.33333333 81.6666667,9.11111111 L81.6666667,10.5555556 L64.7777778,10.5555556 Z M70.1111111,2.88888889 L71.3333333,3.55555556 L70.7777778,4.66666667 L69.5555556,4 L70.1111111,2.88888889 Z M62.2222222,8.55555556 C62.2222222,9 62.1111111,9.33333333 62,9.77777778 C61.8888889,10 61.7777778,10.3333333 61.5555556,10.7777778 L61.4444444,10.6666667 C61.4444444,10.5555556 61.4444444,10.3333333 61.4444444,10.1111111 C61.4444444,9.88888889 61.4444444,9.77777778 61.4444444,9.77777778 C61.4444444,9.22222222 61.4444444,8.55555556 61.3333333,7.55555556 C61.2222222,6.66666667 61.1111111,5.66666667 61,4.66666667 C60.8888889,4 60.8888889,3.44444444 60.7777778,2.77777778 C60.8888889,2.55555556 61,2.33333333 61.1111111,2.11111111 C61.2222222,1.88888889 61.3333333,1.66666667 61.4444444,1.33333333 C61.5555556,1.88888889 61.6666667,2.66666667 61.7777778,3.66666667 C61.8888889,4.66666667 62,5.55555556 62.1111111,6.33333333 C62.2222222,7.33333333 62.2222222,8.11111111 62.2222222,8.55555556 L62.2222222,8.55555556 Z M59.2222222,6.66666667 C59.2222222,6.77777778 59.2222222,7 59.2222222,7.11111111 C59.2222222,7.22222222 59.2222222,7.44444444 59.1111111,7.44444444 C58.8888889,7.22222222 58.7777778,7 58.4444444,6.88888889 C58.2222222,6.77777778 58,6.66666667 57.6666667,6.66666667 C57.2222222,6.66666667 56.7777778,6.88888889 56.3333333,7.44444444 C55.8888889,7.88888889 55.6666667,8.33333333 55.6666667,8.55555556 C55.6666667,8.66666667 55.6666667,8.77777778 55.7777778,8.77777778 C55.8888889,8.77777778 56.1111111,8.88888889 56.3333333,8.88888889 L57,8.88888889 C57.3333333,8.88888889 57.6666667,8.88888889 57.7777778,8.88888889 C58,8.88888889 58.1111111,8.88888889 58.4444444,9 C58.6666667,9 58.7777778,9.22222222 58.7777778,9.55555556 C58.7777778,10.7777778 58.2222222,11.7777778 57.1111111,12.4444444 C56.1111111,13 54.7777778,13.3333333 53,13.3333333 C52.1111111,13.3333333 51.4444444,13.1111111 51,12.7777778 C50.4444444,12.4444444 50.2222222,11.7777778 50.2222222,11.1111111 C50.2222222,10.5555556 50.3333333,10 50.4444444,9.44444444 C50.5555556,9 50.7777778,8.55555556 51,8.11111111 C51,8.11111111 51.2222222,7.77777778 51.4444444,7.22222222 L51.7777778,7.33333333 C51.4444444,7.88888889 51.2222222,8.44444444 51,8.88888889 C50.8888889,9.33333333 50.7777778,9.77777778 50.7777778,10.2222222 C50.7777778,10.8888889 51,11.3333333 51.4444444,11.5555556 C51.8888889,11.8888889 52.4444444,12 53.2222222,12 C53.7777778,12 54.5555556,11.8888889 55.3333333,11.6666667 C56,11.4444444 56.6666667,11.2222222 57.2222222,10.8888889 C57.7777778,10.5555556 58,10.4444444 58,10.2222222 C58,10.1111111 58,10.1111111 57.8888889,10 C57.7777778,10 57.7777778,10 57.5555556,10 L55.8888889,10 C55.6666667,10 55.4444444,9.88888889 55.3333333,9.77777778 C55.2222222,9.66666667 55.1111111,9.44444444 55.1111111,9.22222222 C55.1111111,8.88888889 55.2222222,8.44444444 55.5555556,7.88888889 C55.8888889,7.22222222 56.2222222,6.77777778 56.6666667,6.33333333 C57.2222222,5.77777778 57.6666667,5.55555556 58.2222222,5.55555556 C58.5555556,5.55555556 58.7777778,5.66666667 59,5.88888889 C59.1111111,6.11111111 59.2222222,6.33333333 59.2222222,6.66666667 L59.2222222,6.66666667 Z M56.3333333,14.1111111 L55.7777778,15.2222222 L54.5555556,14.5555556 L55.1111111,13.4444444 L56.3333333,14.1111111 Z M54.6666667,14.8888889 L54.1111111,16 L52.8888889,15.3333333 L53.4444444,14.2222222 L54.6666667,14.8888889 Z M34.2222222,10.5555556 C33.8888889,10.5555556 33.5555556,10.4444444 33.4444444,10.1111111 C33.2222222,9.88888889 33.1111111,9.55555556 33,9 C32.8888889,8.55555556 32.8888889,7.88888889 32.7777778,7.22222222 C32.7777778,6.66666667 32.6666667,6.11111111 32.6666667,5.44444444 C32.6666667,4.88888889 32.5555556,4.44444444 32.5555556,4.11111111 C32.5555556,3.77777778 32.4444444,3.55555556 32.3333333,3.33333333 C32.2222222,3.11111111 32.1111111,2.88888889 31.8888889,2.66666667 L32.7777778,1.22222222 C33,1.77777778 33.1111111,2.55555556 33.2222222,3.33333333 C33.2222222,3.88888889 33.3333333,5.11111111 33.3333333,7 C33.4444444,7.88888889 33.5555556,8.44444444 33.7777778,8.66666667 C33.8888889,8.88888889 34.1111111,9 34.2222222,9 L35.3333333,9 L35.333,9.222 L35.4444444,9.22222222 C35.8888889,9.22222222 36.2222222,9.22222222 36.6666667,9.11111111 C37.1111111,9 37.4444444,8.88888889 37.8888889,8.55555556 L37.5555556,8.11111111 C37.4444444,7.88888889 37.2222222,7.77777778 37,7.77777778 L36.7777778,7.77777778 C36.6666667,7.77777778 36.6666667,7.88888889 36.5555556,8 L36.4444444,8 L36.4444444,7.55555556 C36.4444444,7 36.5555556,6.66666667 36.8888889,6.44444444 C37.1111111,6.22222222 37.6666667,6.11111111 38.3333333,6.11111111 C38.8888889,6.11111111 39.3333333,6.22222222 39.7777778,6.33333333 C40.2222222,6.55555556 40.4444444,6.77777778 40.4444444,7.22222222 C40.4444444,7.44444444 40.3333333,7.66666667 40.1111111,7.88888889 C40,8.11111111 39.7777778,8.33333333 39.3333333,8.55555556 C39.4444444,8.66666667 39.5555556,8.77777778 39.7777778,8.88888889 C40,9 40.2222222,9 40.3333333,9 L41.4444444,9 L41.444,9.222 L44.8888889,9.22222222 C44.8888889,8.77777778 44.8888889,8.33333333 44.7777778,8 C44.5555556,8.11111111 44.3333333,8.11111111 44.2222222,8.22222222 C44,8.33333333 43.7777778,8.33333333 43.5555556,8.33333333 C43.2222222,8.33333333 42.8888889,8.22222222 42.6666667,8 C42.4444444,7.77777778 42.2222222,7.44444444 42.2222222,7.11111111 C42.2222222,6.44444444 42.3333333,5.77777778 42.5555556,5.22222222 C42.8888889,4.66666667 43.2222222,4.33333333 43.6666667,4.33333333 C44.3333333,4.33333333 44.7777778,4.77777778 45.1111111,5.77777778 C45.3333333,6.55555556 45.5555556,7.55555556 45.5555556,8.55555556 L45.5555556,10.5555556 L40.3333333,10.5555556 C40,10.5555556 39.6666667,10.4444444 39.3333333,10.3333333 C38.8888889,10.1111111 38.6666667,9.88888889 38.4444444,9.55555556 C38.1111111,9.88888889 37.7777778,10.1111111 37.3333333,10.2222222 C36.7777778,10.4444444 36.2222222,10.5555556 35.5555556,10.5555556 L34.2222222,10.5555556 Z M43.4444444,5.66666667 C43.3333333,5.66666667 43.2222222,5.77777778 43.1111111,5.88888889 C43,6 43,6.11111111 43,6.33333333 C43,6.77777778 43.2222222,6.88888889 43.6666667,6.88888889 C43.7777778,6.88888889 43.8888889,6.88888889 44,6.77777778 C44.1111111,6.77777778 44.2222222,6.66666667 44.3333333,6.55555556 C44.2222222,6.33333333 44.1111111,6.22222222 44,6 C43.7777778,5.77777778 43.5555556,5.66666667 43.4444444,5.66666667 Z M36.8888889,3.55555556 L38.1111111,4.22222222 L37.5555556,5.33333333 L36.3333333,4.66666667 L36.8888889,3.55555556 Z M38.5555556,2.88888889 L39.7777778,3.55555556 L39.2222222,4.66666667 L38,4 L38.5555556,2.88888889 Z M41.8888889,2.11111111 L43.1111111,2.77777778 L42.5555556,3.88888889 L41.3333333,3.22222222 L41.8888889,2.11111111 Z M37.1111111,1.55555556 L38.3333333,2.22222222 L37.7777778,3.33333333 L36.5555556,2.66666667 L37.1111111,1.55555556 Z M43.6666667,1.33333333 L44.8888889,2 L44.3333333,3.11111111 L43.1111111,2.44444444 L43.6666667,1.33333333 Z M42.1111111,-7.10542736e-15 L43.3333333,0.666666667 L42.7777778,1.77777778 L41.5555556,1.11111111 L42.1111111,-7.10542736e-15 Z M26.8888889,10.5555556 C26.5555556,10.5555556 26.2222222,10.4444444 26.1111111,10.1111111 C25.8888889,9.88888889 25.7777778,9.55555556 25.6666667,9 C25.5555556,8.55555556 25.5555556,7.88888889 25.4444444,7.22222222 C25.4444444,6.66666667 25.3333333,6.11111111 25.3333333,5.44444444 C25.3333333,4.88888889 25.2222222,4.44444444 25.2222222,4.11111111 C25.2222222,3.77777778 25.1111111,3.55555556 25,3.33333333 C24.8888889,3.11111111 24.7777778,2.88888889 24.5555556,2.66666667 L25.4444444,1.22222222 C25.6666667,1.77777778 25.7777778,2.55555556 25.8888889,3.33333333 C25.8888889,3.88888889 26,5.11111111 26,7 C26.1111111,7.88888889 26.2222222,8.44444444 26.4444444,8.66666667 C26.5555556,8.88888889 26.7777778,9 26.8888889,9 L28,9 L27.999,9.222 L31.2222222,9.22222222 C31.2222222,8.66666667 31.1111111,8.22222222 31,7.88888889 C30.8888889,7.66666667 30.6666667,7.33333333 30.3333333,7 L30.8888889,5.77777778 C31.2222222,6.22222222 31.4444444,6.55555556 31.5555556,6.88888889 C31.6666667,7.22222222 31.7777778,7.88888889 31.7777778,8.77777778 L31.7777778,10.5555556 L26.8888889,10.5555556 Z M28.7777778,3.11111111 L30,3.77777778 L29.4444444,4.88888889 L28.2222222,4.22222222 L28.7777778,3.11111111 Z M30.5555556,2.44444444 L31.7777778,3.11111111 L31.2222222,4.22222222 L30,3.55555556 L30.5555556,2.44444444 Z M17,10.5555556 L17,10.553 L16.8931565,10.5514403 C16.3237311,10.5294925 15.8518519,10.4197531 15.5555556,10.2222222 C15.2222222,10 15,9.55555556 15,9 C15,8.44444444 15.1111111,8 15.3333333,7.55555556 C15.6666667,7 16,6.77777778 16.4444444,6.77777778 C16.8888889,6.77777778 17.2222222,7 17.3333333,7.55555556 C17.4444444,8 17.5555556,8.55555556 17.5555556,9.22222222 L18.2222222,9.22222222 C18.4444444,9.22222222 18.6666667,9.11111111 19,9 C18.8888889,8.88888889 18.7777778,8.77777778 18.5555556,8.66666667 C18.4444444,8.55555556 18.3333333,8.44444444 18.3333333,8.33333333 L18.3333333,8.11111111 C18.3333333,8.11111111 18.3333333,8 18.4444444,7.88888889 L19.2222222,6.55555556 C19.3333333,6.33333333 19.4444444,6.22222222 19.4444444,6.22222222 C19.5555556,6.11111111 19.6666667,6.11111111 19.7777778,6.11111111 C19.4444444,5.88888889 19.2222222,5.66666667 19.2222222,5.55555556 C19.2222222,5.44444444 19.3333333,5.22222222 19.5555556,4.77777778 C19.6666667,4.66666667 19.7777778,4.44444444 19.8888889,4.11111111 C20.2222222,4.44444444 20.6666667,4.88888889 21.1111111,5.44444444 C21.7777778,6.22222222 22.2222222,6.88888889 22.5555556,7.44444444 C23.2222222,8.22222222 23.4444444,8.77777778 23.4444444,9.22222222 C23.4444444,9.55555556 23.3333333,9.88888889 23.2222222,10.2222222 C23,10.5555556 22.7777778,10.7777778 22.6666667,10.7777778 C22.4444444,10.7777778 22.1111111,10.6666667 21.5555556,10.3333333 C21,10.1111111 20.5555556,9.88888889 20.2222222,9.66666667 C19.6666667,10 19.2222222,10.2222222 19,10.3333333 C18.6666667,10.4444444 18.2222222,10.5555556 17.7777778,10.5555556 L17.4105947,10.5550018 C17.3128215,11.2155608 17.007826,11.9223769 16.5555556,12.5555556 C15.8888889,13.4444444 15.1111111,13.8888889 14.2222222,13.8888889 C13.8888889,13.8888889 13.5555556,13.8888889 13.2222222,13.7777778 C13,13.7777778 12.6666667,13.6666667 12.2222222,13.4444444 C11.8888889,13.3333333 11.5555556,13.2222222 11.2222222,13.1111111 L11.3333333,12.8888889 C11.6666667,13 11.8888889,13 12.2222222,13.1111111 C12.5555556,13.2222222 12.7777778,13.2222222 13.1111111,13.2222222 C13.7777778,13.2222222 14.3333333,13.1111111 14.8888889,12.7777778 C15.3333333,12.5555556 15.7777778,12.2222222 16.2222222,11.6666667 C16.4444444,11.4444444 16.7777778,11 17.1111111,10.5555556 L17,10.5555556 Z M21.4444444,7.77777778 C21.4444444,8 21.4444444,8.22222222 21.3333333,8.44444444 C21.2222222,8.66666667 21.1111111,8.77777778 20.8888889,8.88888889 C21.2222222,9 21.4444444,9.22222222 21.7777778,9.33333333 C22,9.44444444 22.2222222,9.44444444 22.3333333,9.44444444 C22.4444444,9.44444444 22.4444444,9.44444444 22.4444444,9.33333333 C22.5555556,9.44444444 22.5555556,9.44444444 22.5555556,9.33333333 C22.5555556,9.11111111 22.4444444,8.88888889 22.1111111,8.55555556 C21.8888889,8.33333333 21.6666667,8.11111111 21.4444444,7.77777778 Z M16.1111111,8 C16,8 15.8888889,8 15.7777778,8.11111111 C15.6666667,8.22222222 15.6666667,8.33333333 15.6666667,8.44444444 C15.6666667,8.66666667 15.7777778,8.88888889 16,9 C16.1111111,9.22222222 16.5555556,9.22222222 17,9.22222222 C16.8888889,8.77777778 16.7777778,8.44444444 16.5555556,8.22222222 C16.4444444,8.11111111 16.2222222,8 16.1111111,8 Z M20.1111111,6.88888889 C19.8888889,6.88888889 19.6666667,7 19.4444444,7.11111111 C19.2222222,7.22222222 19.1111111,7.44444444 19.1111111,7.66666667 C19.1111111,7.88888889 19.4444444,8.11111111 20,8.44444444 C20.2222222,8.33333333 20.3333333,8.22222222 20.4444444,8 C20.7777778,7.88888889 20.7777778,7.77777778 20.7777778,7.66666667 C20.7777778,7.44444444 20.7777778,7.33333333 20.6666667,7.11111111 C20.5555556,7 20.4444444,6.88888889 20.1111111,6.88888889 Z M10.2222222,8.55555556 C10.2222222,9 10.1111111,9.33333333 10,9.77777778 C9.88888889,10 9.77777778,10.3333333 9.55555556,10.7777778 L9.44444444,10.6666667 C9.44444444,10.5555556 9.44444444,10.3333333 9.44444444,10.1111111 C9.44444444,9.88888889 9.44444444,9.77777778 9.44444444,9.77777778 C9.44444444,9.22222222 9.44444444,8.55555556 9.33333333,7.55555556 C9.22222222,6.66666667 9.11111111,5.66666667 9,4.66666667 C8.88888889,4 8.88888889,3.44444444 8.77777778,2.77777778 C8.88888889,2.55555556 9,2.33333333 9.11111111,2.11111111 C9.22222222,1.88888889 9.33333333,1.66666667 9.44444444,1.33333333 C9.55555556,1.88888889 9.66666667,2.66666667 9.77777778,3.66666667 C9.88888889,4.66666667 10,5.55555556 10.1111111,6.33333333 C10.1111111,7.33333333 10.2222222,8.11111111 10.2222222,8.55555556 L10.2222222,8.55555556 Z M7.66666667,10.5555556 C7.66666667,11.6666667 7.33333333,12.5555556 6.66666667,13 C6,13.5555556 4.77777778,13.8888889 3.22222222,13.8888889 C2.22222222,13.8888889 1.44444444,13.6666667 0.888888889,13.3333333 C0.333333333,13 0,12.3333333 0,11.5555556 C0,11.1111111 0,10.6666667 0.111111111,10.2222222 C0.222222222,9.77777778 0.333333333,9.33333333 0.555555556,8.88888889 C0.666666667,8.66666667 0.888888889,8.22222222 1.11111111,7.66666667 L1.44444444,7.77777778 C1.11111111,8.55555556 0.888888889,9.11111111 0.777777778,9.44444444 C0.666666667,9.88888889 0.666666667,10.2222222 0.666666667,10.5555556 C0.666666667,11.2222222 0.888888889,11.6666667 1.33333333,12 C1.77777778,12.3333333 2.44444444,12.4444444 3.22222222,12.4444444 C4.22222222,12.4444444 5,12.2222222 5.77777778,11.8888889 C6.66666667,11.4444444 7.11111111,10.8888889 7.11111111,10.1111111 C7.11111111,9.55555556 7,9.11111111 6.88888889,8.66666667 C6.77777778,8.22222222 6.55555556,7.88888889 6.33333333,7.66666667 L7,6.11111111 C7.22222222,6.55555556 7.44444444,6.88888889 7.55555556,7.33333333 C7.66666667,7.77777778 7.66666667,8.33333333 7.66666667,9 L7.66666667,10.5555556 Z M4.88888889,4.77777778 L4.33333333,5.88888889 L3.11111111,5.22222222 L3.66666667,4.11111111 L4.88888889,4.77777778 Z" id="bjn-tagline" fill="#000000" fill-rule="nonzero"></path>
    </g>
</svg>

<svg xmlns="http://www.w3.org/2000/svg" width="82" height="16"><path fill="#000" fill-rule="nonzero" d="m72.667 12.111 1.222.667-.556 1.11-1.222-.666.556-1.11Zm1.777-.778 1.223.667-.556 1.111-1.222-.667.555-1.11Zm-9.666-.777c-.334 0-.556-.112-.778-.223a.611.611 0 0 1-.333-.555v-.556c0-.11.11-.333.11-.555H64c0 .222.111.333.333.444.111.111.334.111.445.111h2.889c0-.889-.111-1.666-.334-2.222-.333-.667-.777-1.111-1.555-1.333l.11-1.445c.89.445 1.445 1.111 1.89 2 .333.778.444 1.778.444 3h3.111c0-.555-.11-1-.222-1.333A3.642 3.642 0 0 0 70.444 7L71 5.778c.333.444.556.778.667 1.11.11.334.222 1 .222 1.89l-.001.444h3.223c0-.555-.111-1-.222-1.333A3.642 3.642 0 0 0 74.222 7l.556-1.222c.333.444.555.778.666 1.11.112.334.223 1 .223 1.89l-.001.444h5.223c-.333-.555-.778-1-1.222-1.444-.445-.445-1.111-.778-1.89-1.334l-.221.223-.89-.667c-.333-.222-.444-.444-.444-.667 0-.889.222-1.555.667-2 .444-.444 1.111-.889 2-1.222L81 1.333v1.334l-1.556.555c-.666.222-1.11.445-1.555.556-.445.222-.778.333-.778.444 0 .111.111.334.445.556.222.11.444.333.666.444.778.556 1.445 1.222 2 1.778a6.514 6.514 0 0 1 1.445 2.111v1.445h-16.89Zm5.333-7.667 1.222.667-.555 1.11L69.556 4l.555-1.111Zm-7.889 5.667c0 .444-.11.777-.222 1.222-.111.222-.222.555-.444 1l-.112-.111v-.889c0-.556 0-1.222-.11-2.222-.112-.89-.223-1.89-.334-2.89-.111-.666-.111-1.222-.222-1.888l.333-.667c.111-.222.222-.444.333-.778.112.556.223 1.334.334 2.334.11 1 .222 1.889.333 2.666.111 1 .111 1.778.111 2.223Zm-3-1.89v.445c0 .111 0 .333-.11.333-.223-.222-.334-.444-.668-.555-.222-.111-.444-.222-.777-.222-.445 0-.89.222-1.334.777-.444.445-.666.89-.666 1.112 0 .11 0 .222.11.222.112 0 .334.11.556.11h1.445c.222 0 .333 0 .666.112.223 0 .334.222.334.556 0 1.222-.556 2.222-1.667 2.888-1 .556-2.333.89-4.111.89-.889 0-1.556-.223-2-.556-.556-.334-.778-1-.778-1.667 0-.555.111-1.111.222-1.667.112-.444.334-.888.556-1.333 0 0 .222-.333.444-.889l.334.111c-.334.556-.556 1.111-.778 1.556-.111.444-.222.889-.222 1.333 0 .667.222 1.111.666 1.334.445.333 1 .444 1.778.444.556 0 1.334-.111 2.111-.333.667-.223 1.334-.445 1.89-.778.555-.333.777-.445.777-.667 0-.11 0-.11-.111-.222h-2a.849.849 0 0 1-.556-.222.849.849 0 0 1-.222-.556c0-.333.111-.778.445-1.333a5.577 5.577 0 0 1 1.11-1.556c.556-.555 1-.777 1.556-.777.334 0 .556.11.778.333.111.222.222.444.222.778Zm-2.889 7.445-.555 1.111-1.222-.666.555-1.112 1.222.667Zm-1.666.778L54.11 16l-1.222-.667.555-1.11 1.223.666Zm-20.445-4.333c-.333 0-.666-.112-.778-.445C33.222 9.89 33.111 9.556 33 9c-.111-.444-.111-1.111-.222-1.778 0-.555-.111-1.11-.111-1.778 0-.555-.111-1-.111-1.333 0-.333-.112-.555-.223-.778-.11-.222-.222-.444-.444-.666l.889-1.445c.222.556.333 1.334.444 2.111 0 .556.111 1.778.111 3.667.111.889.223 1.444.445 1.667.11.222.333.333.444.333h1.111v.222h.111c.445 0 .778 0 1.223-.11.444-.112.777-.223 1.222-.556l-.333-.445A.611.611 0 0 0 37 7.778h-.222c-.111 0-.111.11-.222.222h-.112v-.444c0-.556.112-.89.445-1.112.222-.222.778-.333 1.444-.333.556 0 1 .111 1.445.222.444.223.666.445.666.89 0 .221-.11.444-.333.666-.111.222-.333.444-.778.667.111.11.223.222.445.333C40 9 40.222 9 40.333 9h1.111v.222h3.445c0-.444 0-.889-.111-1.222-.222.111-.445.111-.556.222-.222.111-.444.111-.666.111-.334 0-.667-.11-.89-.333-.222-.222-.444-.556-.444-.889 0-.667.111-1.333.334-1.889.333-.555.666-.889 1.11-.889.667 0 1.112.445 1.445 1.445.222.778.445 1.778.445 2.778v2h-5.223c-.333 0-.666-.112-1-.223-.444-.222-.666-.444-.889-.777-.333.333-.666.555-1.11.666a4.606 4.606 0 0 1-1.778.334h-1.334Zm9.222-4.89c-.11 0-.222.112-.333.223C43 6 43 6.11 43 6.333c0 .445.222.556.667.556.11 0 .222 0 .333-.111.111 0 .222-.111.333-.222-.11-.223-.222-.334-.333-.556-.222-.222-.444-.333-.556-.333Zm-6.555-2.11 1.222.666-.555 1.111-1.223-.666.556-1.111Zm1.667-.667 1.222.667-.556 1.11L38 4l.556-1.111Zm3.333-.778 1.222.667-.555 1.11-1.223-.666.556-1.11Zm-4.778-.555 1.222.666-.555 1.111-1.222-.666.555-1.111Zm6.556-.223L44.889 2l-.556 1.111-1.222-.667.556-1.11ZM42.11 0l1.222.667-.555 1.11-1.222-.666L42.11 0ZM26.89 10.556c-.333 0-.667-.112-.778-.445-.222-.222-.333-.555-.444-1.111-.111-.444-.111-1.111-.223-1.778 0-.555-.11-1.11-.11-1.778 0-.555-.112-1-.112-1.333 0-.333-.11-.555-.222-.778-.111-.222-.222-.444-.444-.666l.888-1.445c.223.556.334 1.334.445 2.111C25.889 3.89 26 5.111 26 7c.111.889.222 1.444.444 1.667.112.222.334.333.445.333H28l-.001.222h3.223c0-.555-.11-1-.222-1.333A3.642 3.642 0 0 0 30.333 7l.556-1.222c.333.444.555.778.667 1.11.11.334.222 1 .222 1.89v1.778h-4.89Zm1.889-7.445L30 3.778l-.556 1.11-1.222-.666.556-1.11Zm1.778-.667 1.222.667-.556 1.111L30 3.556l.556-1.112ZM17 10.556v-.003l-.107-.002c-.57-.022-1.041-.131-1.337-.329C15.222 10 15 9.556 15 9c0-.556.111-1 .333-1.444.334-.556.667-.778 1.111-.778.445 0 .778.222.89.778.11.444.222 1 .222 1.666h.666c.222 0 .445-.11.778-.222a1.534 1.534 0 0 0-.444-.333c-.112-.111-.223-.223-.223-.334v-.222s0-.111.111-.222l.778-1.333c.111-.223.222-.334.222-.334.112-.11.223-.11.334-.11-.334-.223-.556-.445-.556-.556 0-.112.111-.334.334-.778.11-.111.222-.334.333-.667.333.333.778.778 1.222 1.333a14.318 14.318 0 0 1 1.445 2c.666.778.888 1.334.888 1.778 0 .334-.11.667-.222 1-.222.334-.444.556-.555.556-.223 0-.556-.111-1.111-.445-.556-.222-1-.444-1.334-.666-.555.333-1 .555-1.222.666-.333.111-.778.223-1.222.223l-.367-.001c-.098.66-.403 1.367-.855 2-.667.89-1.445 1.334-2.334 1.334-.333 0-.666 0-1-.111-.222 0-.555-.111-1-.334l-1-.333.111-.222c.334.111.556.111.89.222.333.111.555.111.888.111.667 0 1.222-.11 1.778-.444.444-.222.889-.556 1.333-1.111.222-.223.556-.667.89-1.111H17Zm4.444-2.778c0 .222 0 .444-.11.666a.868.868 0 0 1-.445.445c.333.111.555.333.889.444.222.111.444.111.555.111.111 0 .111 0 .111-.11.112.11.112.11.112 0 0-.223-.112-.445-.445-.778-.222-.223-.444-.445-.667-.778ZM16.111 8c-.111 0-.222 0-.333.111-.111.111-.111.222-.111.333 0 .223.11.445.333.556.111.222.556.222 1 .222-.111-.444-.222-.778-.444-1-.112-.11-.334-.222-.445-.222Zm4-1.111c-.222 0-.444.111-.667.222a.611.611 0 0 0-.333.556c0 .222.333.444.889.777A.868.868 0 0 0 20.444 8c.334-.111.334-.222.334-.333 0-.223 0-.334-.111-.556-.111-.111-.223-.222-.556-.222Zm-9.889 1.667c0 .444-.11.777-.222 1.222-.111.222-.222.555-.444 1l-.112-.111v-.889c0-.556 0-1.222-.11-2.222-.112-.89-.223-1.89-.334-2.89-.111-.666-.111-1.222-.222-1.888l.333-.667c.111-.222.222-.444.333-.778.112.556.223 1.334.334 2.334.11 1 .222 1.889.333 2.666 0 1 .111 1.778.111 2.223Zm-2.555 2c0 1.11-.334 2-1 2.444-.667.556-1.89.889-3.445.889-1 0-1.778-.222-2.333-.556C.333 13 0 12.333 0 11.556c0-.445 0-.89.111-1.334.111-.444.222-.889.445-1.333.11-.222.333-.667.555-1.222l.333.11C1.111 8.557.89 9.112.778 9.445c-.111.445-.111.778-.111 1.112 0 .666.222 1.11.666 1.444.445.333 1.111.444 1.89.444 1 0 1.777-.222 2.555-.555.889-.445 1.333-1 1.333-1.778 0-.555-.111-1-.222-1.444a2.148 2.148 0 0 0-.556-1L7 6.11c.222.445.444.778.556 1.222.11.445.11 1 .11 1.667v1.556ZM4.889 4.778l-.556 1.11-1.222-.666.556-1.11 1.222.666Z"/></svg>
